!!!ONB: MCCC : ILB0328_03 : Extracted Monophonic Melody
!!!COM: Beethoven, Ludwig van
!!!OPR: Violin Sonata No.7 in C minor
!!!OMV: 3
!!!SCT: Op.30 No.2
!!!ODT: 1801///
**kern
*staff1
*clefF4
*k[]
*C:
*M4/4
=2
4e
4f
4e
4C
=3
2r
4g
4g
=4
2g
2r
=5
4d
4e
4c
4d
=6
4e
4r
4B
4c
=7
4B
4GG
2r
=8
4G
4A
4G
4r
=9
2r
4G
4G
=10
4G
4G
2r
=11
4d
4e
4c
4d
=12
4e
4r
4B
4c
=13
4r
4B
8C
8AA
8D
8DD
=14
8D
8DD
8D
8DD
4GG
4G
=15
2r
4c
4r
=16
4r
4c
2r
=17
4c
4B-
4A
4DD
=18
2r
4E
4r
=19
4r
4F
2r
=20
4D
4D
4D
4D
=21
4F
4E
4r
4B
=22
2r
4A
4r
=23
4r
8E
8E
2r
=24
8AA
8AA
4r
4r
8E
8E
=25
2r
8E
8E
4r
=26
1r
=27
2r
4cc
4cc
=28
4cc
4c
2r
=29
4cc
4g
4cc
4c
=30
1r
=31
4r
8r
8B
8e
8c
8d
8D
=32
8d
8D
8d
8D
4G
4GG
=33
8c
8B
8A
8c
8E
8G
8F
8A
=34
8F
8D
8E
8G
8F
8D
4GG
=35
4GG
4GG
8C
8G
8E
8C
=36
8F
8D
8G
8E
8C
8GG
8G
8GG
=37
4C
4CC
2r
=38
4c
4r
4r
4c
=39
2r
4c
4B-
=40
4A
4DD
2r
=41
4E
4r
4r
4F
=42
2r
4D
4D
=43
4D
4D
4F
4E
=44
4r
4B
2r
=45
4A
4r
4r
8E
8E
=46
2r
8AA
8AA
4r
=47
4r
8E
8E
2r
=48
8E
8E
4r
2r
=49
1r
=50
4cc
4cc
4cc
4c
=51
2r
4cc
4g
=52
4cc
4c
2r
=53
2r
4r
8r
8B
=54
8e
8c
8d
8D
8d
8D
8d
8D
=55
4G
4GG
8c
8B
8A
8c
=56
8E
8G
8F
8A
8F
8D
8E
8G
=57
8F
8D
4GG
4GG
4GG
=58
8C
8G
8E
8C
8F
8D
8G
8E
=59
8C
8GG
8G
8GG
4C
4CC
=60
2r
4r
8C
8BB
=61
8C
8BB
8C
8GG
8EE
8GG
4C
=62
4CC
4DD
4EE
4EE
=63
4FF
2GG
8FF
8EE
=64
4DD
4DD
4EE
4FF
=65
8CC
8DD
4EE
4DD
4EE
=66
8DD
8CC
8BBB
8CC
[4DD
4DD_
=67
4DD]
4GGG
2r
=68
4r
8C
8BB
8C
8BB
8C
8GG
=69
8EE
8GG
4C
4CC
4DD
=70
4EE
4EE
4FF
4GG[
=71
4GG]
8FF
8EE
4DD
4DD
=72
4EE
4FF
8CC
8DD
4EE
=73
4DD
4EE
8DD
8CC
4BBB
=74
4CC
2DD
4GGG
=75
8F
8E
8F
8E
8F
8D
8BB
8D
=76
2GG
8F
8E
8F
8E
=77
8F
8D
8BB
8D
8F
8E
8F
8D
=78
8BB
8D
4F
2r
=79
1r
=80
1r
=81
1r
=82
1r
=83
1r
=84
1r
=85
2r
4r
4f
=86
1r
=87
2r
4r
8C
8BB
=88
8C
8BB
8C
8GG
8EE
8GG
[4C
=89
4C]
4D
4E
4E
=90
4F
2G
8F
8E
=91
4D
4D
4E
4F
=92
8C
8D
4E
4D
4E
=93
8D
8C
4BB
4C
4D[
=94
8D]
8GG
4C
8F
8E
8F
8E
=95
8F
8D
8BB
8D
2GG
=96
8F
8E
8F
8E
8F
8D
8BB
8D
=97
8F
8E
8F
8D
8BB
8D
4F
=98
1r
=99
1r
=100
1r
=101
1r
=102
1r
=103
1r
=104
1r
=105
4r
4f
2r
=106
1r
=107
4r
8C
8BB
8C
8BB
8C
8GG
=108
8EE
8GG
2C
4D
=109
4E
4E
4F
4G[
=110
4G]
8F
8E
4D
4D
=111
4E
4F
8C
8D
4E
=112
4D
4E
8D
8C
4BB
=113
4C
4D[
8D]
8GG
4C
=114
2r
4e
4f
=115
4e
4C
2r
=116
4g
4g
2g
=117
2r
4d
4e
=118
4c
4d
4e
4r
=119
4B
4c
4B
4GG
=120
2r
4G
4A
=121
4G
4r
2r
=122
4G
4G
4G
4G
=123
2r
4d
4e
=124
4c
4d
4e
4r
=125
4B
4c
4r
4B
=126
8C
8AA
8D
8DD
8D
8DD
8D
8DD
=127
4GG
4G
2r
=128
4c
4r
4r
4c
=129
2r
4c
4B-
=130
4A
4DD
2r
=131
4E
4r
4r
4F
=132
2r
4D
4D
=133
4D
4D
4F
4E
=134
4r
4B
2r
=135
4A
4r
4r
8E
8E
=136
2r
8AA
8AA
4r
=137
4r
8E
8E
2r
=138
8E
8E
4r
2r
=139
1r
=140
4cc
4cc
4cc
4c
=141
2r
4cc
4g
=142
4cc
4c
2r
=143
2r
4r
8r
8B
=144
8e
8c
8d
8D
8d
8D
8d
8D
=145
4G
4GG
8c
8B
8A
8c
=146
8E
8G
8F
8A
8F
8D
8E
8G
=147
8F
8D
4GG
4GG
4GG
=148
8C
8G
8E
8C
8F
8D
8G
8E
=149
8C
8GG
8G
8GG
4C
4CC
==
*-
